X:1
M:6/8
K:G
e|f2g f2e|dBG G2A|FAA cBc|d3 d3|
dfe e2c|ded c2d|Bde efe|d3 -d2:|
|:f/2e/2|d2d Bcd|e3 d3|B2d AGB|A2c d2B|\
c3 -A2G|F2E D3||
e3 e2f|efe c2c|d3 e3|f2e d2B|G3 -A2:|